X: 28545
T: Munsterman's Rambles
R: polka
M: 2/4
K: Gmajor
|:B,D GD|ED G>D|B,/C/D GB|A/B/A/G/ E>D|
B,D GD|ED GA/B/|cA B>A|GE E>D:|
|:Bd Bd|B/c/B/A/ G>A|Bd Bd|B/A/G A2|
Bd Bd|B/c/B/A/ GA/B/|cA B>A|GE E>D:|

